X: 58
M: 4/4
L: 1/8
K: G
g2g2 gbag | f2f2 fagf | e^def gfe=d | B2e2 e2((3efe) |
dBGB d2^cd | edef g2fe | dcBA GFGA | B2G2 G2z2 |]


